X:1
T: Do You Want Anymore?
C:
R:Jig
Q:180
K:D
M:6/8
L:1/16
G2|D2F2A2 A4B2|c2A2d2 c2A2G2|A2d2c2 d2e2g2|f2e2d2 c2A2G2|F2D2F2 G2A2B2|c2A2d2 c2A2G2|A2d2c2 A2G2E2|F2D2D2 D4G2|
D2F2A2 A4B2|c2A2d2 c2A2G2|A2d2c2 d2e2g2|f2e2d2 c2A2G2|F2D2F2 G2A2B2|c2A2d2 c2A2G2|A2d2c2 A2G2E2|F2D2D2 D4g2|
f2d2g2 f2d2c2|A2d2c2 A2d2e2|f2d2g2 f2d2C2|A2B2c2 d4e2|a2b2a2 g2a2g2|f2g2f2 e2d2c2|A2d2c2 A2G2E2|F2D2D2 D4g2|
f2d2g2 f2d2c2|A2d2c2 A2d2e2|f2d2g2 f2d2C2|A2B2c2 d4e2|a2b2a2 g2a2g2|f2g2f2 e2d2c2|A2d2c2 A2G2E2|F2D2D2 D4||
